X: 4161
M: C|
L: 1/8
K: Amix
|:\
cA A/A/A (fd)ec | dEEF GABd |\
cA A/A/A (fd)ec | defg aAAd :|\
c2(ag) fedc | defg aAAd |\
c/c/c (Ac) dBBc | defg afed |]


